icons/folder-css-open.svg

<?xml version="1.0" encoding="UTF-8"?>
<svg clip-rule="evenodd" fill-rule="evenodd" stroke-linejoin="round" stroke-miterlimit="1.4142" version="1.1" viewBox="0 0 24 24" xml:space="preserve" xmlns="http://www.w3.org/2000/svg"><path d="m19 20h-15c-1.11 0-2-0.9-2-2v-12c0-1.11 0.89-2 2-2h6l2 2h7c1.097 0 2 0.903 2 2h-17v10l2.14-8h17.07l-2.28 8.5c-0.23 0.87-1.01 1.5-1.93 1.5z" fill="#42a5f5" fill-rule="nonzero"/><g transform="matrix(.67606 0 0 .67606 9.1073 7.3873)" fill="#bbdefb"><path d="m5 3l-0.65 3.34h13.59l-0.44 2.16h-13.58l-0.66 3.33h13.59l-0.76 3.81-5.48 1.81-4.75-1.81 0.33-1.64h-3.34l-0.79 4 7.85 3 9.05-3 1.2-6.03 0.24-1.21 1.54-7.76h-16.94z" fill="#bbdefb" fill-rule="nonzero"/></g></svg>

<?xml version="1.0" encoding="UTF-8" standalone="no"?>
<!DOCTYPE svg PUBLIC "-//W3C//DTD SVG 1.1//EN" "http://www.w3.org/Graphics/SVG/1.1/DTD/svg11.dtd">
<svg width="100%" height="100%" viewBox="0 0 24 24" version="1.1" xmlns="http://www.w3.org/2000/svg" xmlns:xlink="http://www.w3.org/1999/xlink" xml:space="preserve" style="fill-rule:evenodd;clip-rule:evenodd;stroke-linejoin:round;stroke-miterlimit:1.41421;">
    <path id="path2" d="M19,20L4,20C2.89,20 2,19.1 2,18L2,6C2,4.89 2.89,4 4,4L10,4L12,6L19,6C20.097,6 21,6.903 21,8L4,8L4,18L6.14,10L23.21,10L20.93,18.5C20.7,19.37 19.92,20 19,20Z" style="fill:rgb(21,101,192);fill-rule:nonzero;"/>
    <g id="path4" transform="matrix(0.676056,0,0,0.676056,9.10732,7.38732)">
        <path d="M5,3L4.35,6.34L17.94,6.34L17.5,8.5L3.92,8.5L3.26,11.83L16.85,11.83L16.09,15.64L10.61,17.45L5.86,15.64L6.19,14L2.85,14L2.06,18L9.91,21L18.96,18L20.16,11.97L20.4,10.76L21.94,3L5,3Z" style="fill:rgb(66,165,245);fill-rule:nonzero;"/>
    </g>
</svg>
